X: 1
T: Littlest Doyle, The
M: 4/4
L: 1/8
R: reel
K: Dmaj
DddA G2 FG|AF (3FFF EFGF|DddA G2 FG|AF (3FFF CDA,C|
DddA G2 FG|AF (3FFF EFGF|B,FFB, A,AAF|GddA (3Bcd ec:|
DdDA DGDG|FDDC CDEC|DdDA DGDG|FDDC ~E3 D|
DdDA DGDG|FDDC CDEC|B,FFB, A,AAF|GddA (3Bcd ec:|
